X:0300
T:La Rosalia.
M:6/8
L:1/8
Q:3/8=120
I: :: ::
Z:Jack Campin * www.campin.me.uk * 2009
K:G
G|BdB GBd|gfe d3  |edc BAG|F2G  A2
D|BdB GBd|gfe d^cd|efg agf|ed^c d2:|
d|dBd dBd|dcB c2A |cAc cAc|cBA  B2
G|BdB GBd|gfe d^cd|edc BAG|AGF  G2:|
<end>
<start>
